X: 43191
T: Wishbone, The
R: reel
M: 4/4
K: Gmajor
GA|B2 AG EDB,D|E2BE DEGA|B/d/B AG EDB,D|ED E/F/G ABcd|
B/d/B AG EDB,D|[D2B,2]GD EFGA|B/d/B AG EDB,D|1 ED E/F/G A(d{e}d)c:|2 ED E/F/G ABcd||
d~B3 GBgB|d~B3 ABcA|d~B3 GBgB|c/d/c Bc ABce|
d~B3 GBgB|d~B3 ABce|d2 e/f/g fgag|~f3d cBce|
d~B3 g~B3|dBGB cBce|d~B3 gBgB|c/B/A BG ABce|
d~B3 e~B3|fafa gfga|b/a/g ag fd^cd|egag fd=cA||
"End" B2 AG EDB,D|G4||

